src/24/actions/code-context.svg

<svg xmlns="http://www.w3.org/2000/svg" viewBox="0 0 24 24">
  <defs id="defs3051">
    <style type="text/css" id="current-color-scheme">
      .ColorScheme-Text {
        color:#5d656b;
      }
      </style>
  </defs>
 <path style="fill:currentColor;fill-opacity:1;stroke:none" 
     d="M 11.044922 4 C 9.2680919 4 8.5234375 4.7064456 8.5234375 6.5097656 L 8.5234375 8.9511719 C 8.5234375 10.064992 8.4892425 11.355469 7.5078125 11.355469 L 7 11.355469 L 7 12.644531 L 7.5078125 12.644531 C 8.4892925 12.644531 8.5234375 13.935008 8.5234375 15.048828 L 8.5234375 17.490234 C 8.5234375 19.293554 9.2680919 20 11.044922 20 L 11.044922 18.816406 C 9.8603719 18.816406 9.84375 18.338079 9.84375 16.605469 L 9.84375 14.589844 C 9.84375 13.758914 9.639045 12.522466 8.640625 12.009766 C 9.639045 11.497056 9.84375 10.258674 9.84375 9.4277344 L 9.84375 7.3945312 C 9.84375 5.6619313 9.8603419 5.1835937 11.044922 5.1835938 L 11.044922 4 z M 12.939453 4 L 12.939453 5.1835938 C 14.124013 5.1835938 14.15625 5.6619313 14.15625 7.3945312 L 14.15625 9.4277344 C 14.15625 10.258674 14.360955 11.497056 15.359375 12.009766 C 14.360955 12.522466 14.15625 13.758914 14.15625 14.589844 L 14.15625 16.605469 C 14.15625 18.338079 14.124063 18.816406 12.939453 18.816406 L 12.939453 20 C 14.716293 20 15.476563 19.293554 15.476562 17.490234 L 15.476562 15.048828 C 15.476562 13.935008 15.545206 12.644531 16.509766 12.644531 L 17 12.644531 L 17 11.355469 L 16.509766 11.355469 C 15.545196 11.355469 15.476562 10.064992 15.476562 8.9511719 L 15.476562 6.5097656 C 15.476562 4.7064456 14.716293 4 12.939453 4 z "
     class="ColorScheme-Text"
     />
</svg>

<svg xmlns="http://www.w3.org/2000/svg" viewBox="0 0 24 24"><path d="M11.045 4c-1.777 0-2.522.706-2.522 2.51V8.95c0 1.114-.034 2.404-1.015 2.404H7v1.29h.508c.981 0 1.015 1.29 1.015 2.404v2.441c0 1.804.745 2.51 2.522 2.51v-1.184c-1.185 0-1.201-.478-1.201-2.21V14.59c0-.831-.205-2.068-1.203-2.58.998-.513 1.203-1.751 1.203-2.582V7.395c0-1.733.016-2.211 1.2-2.211V4zm1.894 0v1.184c1.185 0 1.217.478 1.217 2.21v2.034c0 .83.205 2.07 1.203 2.582-.998.512-1.203 1.749-1.203 2.58v2.015c0 1.733-.032 2.211-1.217 2.211V20c1.777 0 2.538-.706 2.538-2.51V15.05c0-1.114.068-2.404 1.033-2.404H17v-1.29h-.49c-.965 0-1.033-1.29-1.033-2.404V6.51c0-1.804-.76-2.51-2.538-2.51z" fill="currentColor" color="#5d656b"/></svg>
